X:1
T: Sir George McKenzie of Coul's Favourite
C:Nathaniel Gow
R:Strathspey
Q: 128
K:Em
M:4/4
L:1/16
|:EE3 c3A GE3 D4|EE3 c3A Gc3 Ec3|A2Bc G3A GE3 D4|EE3 c3d eE3 G3c|
EE3 c3A GE3 D4|EE3 c3A Gc3 Ec3|A2Bc G3A GE3 D4|EE3 c3d eE3 G3c|
eg3 g3a ge3 d4|eg3 ea3 eg3 ec'3|eg3 g3a ge3 d4|cc3 e3d cE3 G3c|
eg3 g3a ge3 d4|eg3 g3a gd3 e3B|c3A GE3 cE3 D4|EE3 c3d eE3 E4:|
